lib/svg/telescope.svg

<svg xmlns="http://www.w3.org/2000/svg" width="14" height="16" viewBox="0 0 14 16"><path d="M8 9l3 6h-1l-2-4v5H7v-6l-2 5H4l2-5 2-1zM7 0H6v1h1V0zM5 3H4v1h1V3zM2 1H1v1h1V1zM.63 9a.52.52 0 0 0-.16.67l.55.92c.13.23.41.31.64.2l1.39-.66-1.16-2-1.27.86.01.01zm7.89-5.39l-5.8 3.95L3.95 9.7l6.33-3.03-1.77-3.06h.01zm4.22 1.28l-1.47-2.52a.51.51 0 0 0-.72-.17l-1.2.83 1.84 3.2 1.33-.64c.27-.13.36-.44.22-.7z"/></svg>

<?xml version="1.0" encoding="UTF-8" standalone="no"?>
<svg width="14px" height="16px" viewBox="0 0 14 16" version="1.1" xmlns="http://www.w3.org/2000/svg" xmlns:xlink="http://www.w3.org/1999/xlink">
    <!-- Generator: Sketch 3.8.3 (29802) - http://www.bohemiancoding.com/sketch -->
    <title>telescope</title>
    <desc>Created with Sketch.</desc>
    <defs></defs>
    <g id="Octicons" stroke="none" stroke-width="1" fill="none" fill-rule="evenodd">
        <g id="telescope" fill="#000000">
            <path d="M8,9 L11,15 L10,15 L8,11 L8,16 L7,16 L7,10 L5,15 L4,15 L6,10 L8,9 L8,9 Z M7,0 L6,0 L6,1 L7,1 L7,0 L7,0 Z M5,3 L4,3 L4,4 L5,4 L5,3 L5,3 Z M2,1 L1,1 L1,2 L2,2 L2,1 L2,1 Z M0.63,9 C0.41,9.16 0.35,9.44 0.47,9.67 L1.02,10.59 C1.15,10.82 1.43,10.9 1.66,10.79 L3.05,10.13 L1.89,8.13 L0.62,8.99 L0.63,9 Z M8.52,3.61 L2.72,7.56 L3.95,9.7 L10.28,6.67 L8.51,3.61 L8.52,3.61 Z M12.74,4.89 L11.27,2.37 C11.13,2.12 10.8,2.04 10.55,2.2 L9.35,3.03 L11.19,6.23 L12.52,5.59 C12.79,5.46 12.88,5.15 12.74,4.89 L12.74,4.89 Z" id="Shape"></path>
        </g>
    </g>
</svg>
